src/assets/icons/password.svg

<?xml version="1.0" standalone="no"?><!DOCTYPE svg PUBLIC "-//W3C//DTD SVG 1.1//EN" "http://www.w3.org/Graphics/SVG/1.1/DTD/svg11.dtd"><svg t="1498621373581" class="icon" style="" viewBox="0 0 1024 1024" version="1.1" xmlns="http://www.w3.org/2000/svg" p-id="4034" xmlns:xlink="http://www.w3.org/1999/xlink" width="32" height="32"><defs><style type="text/css"></style></defs><path d="M800.264045 365.974863c0-27.727477 0-79.037022 0-79.368573-1.689477-158.020832-133.200565-286.60629-293.125768-286.60629-160.49416 0-291.957153 128.915986-293.213772 287.653132l0 78.604164c-73.213392 5.662971-131.014785 67.005-131.014785 141.713441l0 373.537088c0 78.369827 63.771355 142.137089 142.068527 142.137089l568.88707 0c78.394386 0 142.068527-63.766239 142.068527-142.137089l0-373.537088C935.933845 431.742687 875.659123 369.257626 800.264045 365.974863L800.264045 365.974863zM263.306143 287.936587c1.022282-127.44038 112.540033-236.055015 241.860225-236.055015 128.896543 0 244.358113 108.327086 245.711946 235.343818 0 2.284017 0 49.79096 0 77.27489L263.306143 364.50028 263.306143 287.936587 263.306143 287.936587zM892.063729 881.507824c0 47.030083-51.212331 95.248222-98.198411 95.248222L224.978248 976.756047c-46.980964 0-96.178407-48.21814-96.178407-95.248222l0-373.537088c0-47.030083 38.260357-99.484706 85.26588-99.484706l568.863534 0c47.005523 0 109.135497 52.454623 109.135497 99.484706L892.064752 881.507824 892.063729 881.507824zM892.063729 881.507824M507.137254 509.967204c-65.027974 0-117.837684 52.264289-117.837684 116.556506 0 36.613859 17.618245 70.710388 46.864307 92.632654l0 118.553998c0 15.738434 12.699217 28.389555 28.364996 28.389555l85.075546 0c15.694431 0 28.413092-12.651122 28.413092-28.389555L578.01751 719.157388c29.246062-21.971385 46.791652-56.018795 46.791652-92.681773C624.810186 562.231493 572.029128 509.967204 507.137254 509.967204L507.137254 509.967204zM550.340175 686.677682c-11.102861 5.994522-18.022451 17.641781-18.022451 30.195689l0 108.093772-48.21814 0L484.099584 716.873371c0-12.553908-6.91959-24.201167-18.022451-30.195689-23.612767-12.743219-31.695855-36.852289-31.695855-62.86573 0-39.706287 32.956566-71.947564 73.446706-71.947564 40.514699 0 73.495824 32.241276 73.495824 71.947564C581.1785 649.825393 573.952942 673.934462 550.340175 686.677682L550.340175 686.677682z" p-id="4035" fill="#bfcbd9"></path></svg>

<svg xmlns="http://www.w3.org/2000/svg" viewBox="0 0 1024 1024" width="32" height="32" xmlns:v="https://vecta.io/nano"><path d="M800.264 365.975v-79.369C798.575 128.585 667.063 0 507.138 0 346.644 0 215.181 128.916 213.925 287.653v78.604C140.711 371.92 82.91 433.262 82.91 507.971v373.537c0 78.37 63.771 142.137 142.069 142.137h568.887c78.394 0 142.069-63.766 142.069-142.137V507.971c0-76.228-60.275-138.713-135.67-141.996h0zm-536.958-78.038c1.022-127.44 112.54-236.055 241.86-236.055 128.897 0 244.358 108.327 245.712 235.344V364.5H263.306v-76.564h0zm628.758 593.571c0 47.03-51.212 95.248-98.198 95.248H224.978c-46.981 0-96.178-48.218-96.178-95.248V507.971c0-47.03 38.26-99.485 85.266-99.485h568.864c47.006 0 109.135 52.455 109.135 99.485v373.537h-.001zM507.137 509.967c-65.028 0-117.838 52.264-117.838 116.557 0 36.614 17.618 70.71 46.864 92.633V837.71c0 15.738 12.699 28.39 28.365 28.39h85.076c15.694 0 28.413-12.651 28.413-28.39V719.157c29.246-21.971 46.792-56.019 46.792-92.682.001-64.244-52.78-116.508-117.672-116.508h0zm43.203 176.71c-11.103 5.995-18.022 17.642-18.022 30.196v108.094H484.1V716.873c0-12.554-6.92-24.201-18.022-30.196-23.613-12.743-31.696-36.852-31.696-62.866 0-39.706 32.957-71.948 73.447-71.948 40.515 0 73.496 32.241 73.496 71.948-.145 26.013-7.371 50.123-30.984 62.866h0z" fill="#bfcbd9"/></svg>
